packages/foundations/icons/Health/Bones.svg

<svg width="24" height="24" viewBox="0 0 24 24" fill="none" xmlns="http://www.w3.org/2000/svg">
<path fill-rule="evenodd" clip-rule="evenodd" d="M3.51469 16.2427C3.31924 16.4382 3.2218 16.6924 3.2218 16.9498C3.2218 17.2073 3.31924 17.4615 3.51469 17.657C3.67987 17.8221 3.88533 17.9164 4.09817 17.9425C4.26581 17.963 4.43859 17.9412 4.6008 17.8734L6.84801 16.9341L5.90916 19.1815C5.84147 19.3435 5.81961 19.5163 5.8402 19.6844C5.86633 19.8976 5.9606 20.1029 6.12555 20.2678C6.32101 20.4633 6.57519 20.5607 6.83266 20.5607C7.09013 20.5607 7.34431 20.4633 7.53976 20.2678C7.67882 20.1288 7.76686 19.9623 7.80703 19.7874C7.87145 19.507 7.81441 19.2078 7.64144 18.9714L7.13556 18.2798L18.2797 7.13568L18.9713 7.64157C19.2077 7.81453 19.5069 7.87157 19.7873 7.80715C19.9622 7.76699 20.1286 7.67894 20.2677 7.53989C20.4631 7.34443 20.5606 7.09025 20.5606 6.83278C20.5606 6.57531 20.4631 6.32113 20.2677 6.12567C20.1029 5.96084 19.8983 5.86707 19.6866 5.84138C19.5189 5.82104 19.3462 5.84339 19.184 5.9121L16.9174 6.8724L17.8722 4.60344C17.9407 4.44084 17.9628 4.26733 17.9422 4.09856C17.9161 3.8852 17.8219 3.67985 17.6568 3.51482C17.4614 3.31936 17.2072 3.22192 16.9497 3.22193C16.6923 3.22192 16.4381 3.31936 16.2426 3.51482C16.0897 3.66776 15.9979 3.85468 15.9643 4.05011C15.9105 4.36361 16.0043 4.69108 16.2421 4.9284L16.9505 5.63551L5.63539 16.9506L4.92828 16.2422C4.69096 16.0044 4.36349 15.9106 4.04999 15.9645C3.85456 15.998 3.66764 16.0898 3.51469 16.2427ZM1.2218 16.9498C1.2218 16.1836 1.51489 15.4141 2.10048 14.8285C2.55442 14.3746 3.12072 14.0948 3.71153 13.9933C4.31582 13.8896 4.94888 13.9715 5.51549 14.2421L14.242 5.51561C13.9714 4.949 13.8894 4.31594 13.9932 3.71165C14.0946 3.12085 14.3745 2.55454 14.8284 2.1006C15.414 1.51501 16.1835 1.22192 16.9497 1.22192C17.7159 1.22192 18.4855 1.51501 19.071 2.1006C19.5623 2.5919 19.849 3.21412 19.9275 3.85594C20.5697 3.93386 21.1914 4.22093 21.6819 4.71146C22.2675 5.29705 22.5606 6.06656 22.5606 6.83278C22.5606 7.599 22.2675 8.36851 21.6819 8.9541C21.2707 9.3653 20.7667 9.63427 20.235 9.75639C19.6885 9.88193 19.112 9.85304 18.5763 9.66749L9.66737 18.5764C9.85292 19.1122 9.8818 19.6886 9.75627 20.2352C9.63415 20.7668 9.36518 21.2708 8.95398 21.682C8.36839 22.2676 7.59888 22.5607 6.83266 22.5607C6.06644 22.5607 5.29693 22.2676 4.71134 21.682C4.22029 21.191 3.93365 20.5691 3.85505 19.9276C3.21371 19.8491 2.59163 19.5623 2.10048 19.0712C1.51489 18.4856 1.2218 17.7161 1.2218 16.9498Z" fill="#3D474D"/>
</svg>

<svg xmlns="http://www.w3.org/2000/svg" fill="none" viewBox="0 0 24 24" width="100%" height="100%">
  <path fill="#3D474D" fill-rule="evenodd" d="M3.515 16.243a.994.994 0 0 0-.293.707c0 .257.097.512.293.707a.992.992 0 0 0 1.086.216l2.247-.939-.939 2.247a.99.99 0 0 0 .217 1.087c.195.195.45.293.707.293a.994.994 0 0 0 .707-.293 1.003 1.003 0 0 0 .102-1.296l-.506-.692L18.28 7.136l.691.506a1.003 1.003 0 0 0 1.297-.102.994.994 0 0 0 .293-.707.994.994 0 0 0-1.377-.92l-2.267.96.955-2.27a.989.989 0 0 0-.215-1.088.994.994 0 0 0-.707-.293.994.994 0 0 0-.707.293.996.996 0 0 0 0 1.414l.707.707L5.636 16.95l-.707-.709a.996.996 0 0 0-1.413 0Zm-2.293.707c0-.766.293-1.536.878-2.121a2.99 2.99 0 0 1 1.612-.836 3.01 3.01 0 0 1 1.803.25l8.727-8.727a3.01 3.01 0 0 1-.249-1.804 2.99 2.99 0 0 1 .835-1.611 2.994 2.994 0 0 1 2.122-.88c.766 0 1.535.294 2.121.88a2.99 2.99 0 0 1 .856 1.755 2.994 2.994 0 0 1 2.633 2.977c0 .766-.293 1.536-.878 2.121a2.99 2.99 0 0 1-1.447.802 3.014 3.014 0 0 1-1.659-.089l-8.909 8.91a2.99 2.99 0 0 1-.713 3.106 2.994 2.994 0 0 1-2.121.878 2.994 2.994 0 0 1-2.122-.879 2.99 2.99 0 0 1-.856-1.754A2.99 2.99 0 0 1 2.1 19.07a2.994 2.994 0 0 1-.878-2.121Z" clip-rule="evenodd"/>
</svg>
